X:574
M:C
L:1/8
K:F
c|A/B/c f>c d>cf>c|A/B/c f>c d>c d<f|A/B/c f>c d/e/f/g/ a>g|f>dc>A F2F:|
c<Fd<F c<F f>d|c<F cB/A/ G2 GA/B/|c<F c>A f<ag<a|f>dc>A F2F||

